X:1
T:The Brown Girl
M:6/8
L:1/8
K:A
 A| B2 c edd| c/2 c3/2 B A2 A| B2B/2-d/2 e2 c| c- B2 z2 B|c-A c BAF|\
 F2 E A2 A| cccB-A F| B- A2- A2 B|c-A c BAF| F2 E A2 A| cccB-A F| B- A2- A2||\
